X:1
T:Blessèd Bible, How I Love It
T:Blessèd Bible, How I Love It
T:Alonzo Judson Abbey, 1886
T:Phoebe Worrell Palmer, 1860
T:Public Domain Courtesy of the Cyber Hymnal™
T:Public Domain Courtesy of the Cyber Hymnal™
C:Alonzo Judson Abbey, 1886
Z:Public Domain
Z:Courtesy of the Cyber Hymnal™
%%score ( 1 2 ) ( 3 4 )
L:1/8
Q:1/4=80
M:3/4
K:E
V:1 treble 
V:2 treble 
V:3 bass 
V:4 bass 
V:1
 (3(B,E)[A,F] | [B,G]2 [EG]2 (3([EG][FA])[GB] | ([Ac]>[GB]) [GB]2 [GB]>[EG] | %3
w: 1.~Bless- * èd|Bi- ble, how * I|love * it, How it|
w: 2.~Yes, * I’ll|to my bo- * som|press * thee, Pre- cious|
w: 3.~Yes, * sweet|Bi- ble, I * will|hide * thee, Deep, yes,|
 [GB]3 [EG] (3([EG][DF])E x3/4 | [DF]4 (3(B,E)[A,F] | [B,G]2 [EG]2 (3([EG][FA])[GB] | %6
w: doth my bo- * som|cheer, What * hath|earth like this * to|
w: Word, I’ll hide * thee|here, Sure * my|ve- ry heart * will|
w: deep- er in * my|heart; Thou * thro’|all my life * shalt|
 ([Ac]>[GB]) [GB]2 [GB]>[Gc] | ([Fd]2 (3[Fd][Ge])[Fd] (3(cG)[E^A] | [DB]4 [DB]>[DB] | %9
w: co- * vet, Oh, what|stores * * of wealth * are|here! Man was|
w: bless * thee, For thou|ev- * * er say’st * good|cheer. Speak, poor|
w: guide * me, And in|death * * we will * not|part. Part in|
 [DB]3 [DF] [E=G][EG] | [EG]2 [DF]2 [DB]>[DB] | [EB]3 [EB] [EB][E^A] | %12
w: lost! and doomed to|sor- row; Not one|ray of light or|
w: heart, and tell thy|pon- d’rings, Tell how|far thy rov- ings|
w: death? no, nev- er,|nev- er, Thro’ death’s|vale, I’ll lean on|
 !fermata![DB]4 (3(B,E)[A,F] | [B,G]2 [EG]2 (3([EG][FA])[GB] | ([Ac]>[GB]) [GB]2 (3([Ge][Bd])[Ac] | %15
w: bliss Could * he|from earth’s trea- * sures|bor- * row, Till * his|
w: led! When * this|book brought back * thy|wan- * d’rings, Speak- * ing|
w: thee; Then * in|worlds a- bove * for-|ev- * er, Sweet- * er|
 (3([GB]E)[FA] ([EG]2 (3[EG][FA])[DF] x | !fermata!E4 ||"^Refrain" (3([GB][FA])[^EG] | %18
w: way * was cheered * * by|this.||
w: life * as from * * the|dead.|Bless- * èd|
w: still * thy truths * * shall|be.||
 [FA]2 [FA]2 (3([Ac][GB])[^^F^A] | [GB]2 [Ge]2 [GB]>[EG] | [GB]3 [EG] (3([EG][DF])E x3/4 | %21
w: |||
w: Bi- ble, bless- * èd|Bi- ble, How it|doth my bo- * som|
w: |||
 [DF]4 (3(B,E)[B,F] | [EG]2 [EG]2 (3([EG][FA])[GB] | ([Ac]>[GB]) [GB]2 (3([Ge][Bd])[Ac] | %24
w: |||
w: cheer. What * has|earth like this * to|co- * vet, O! * what|
w: |||
 (3([GB]E)[FA] ([EG]2 (3[EG][FA])[DF] | !fermata!E6 |] %26
w: ||
w: stores * of wealth * * are|here!|
w: ||
V:2
 G,2 | x6 | x6 | x16/3 E x5/12 | x4 G,2 | x6 | x6 | x4 E2 | x6 | x6 | x6 | x6 | x4 G,2 | x6 | x6 | %15
 x2/3 E x16/3 | E4 || x2 | x6 | x6 | x16/3 E x5/12 | x4 B,2 | x6 | x6 | x2/3 E x13/3 | E6 |] %26
V:3
 z2 | [E,,E,] z [E,B,] z [E,B,] z | [E,,E,] z [E,B,] z [E,B,] z | %3
 [E,,E,] z [E,B,] z B,2 (3:2:1[G,B,] x/12 | B,4 z2 | [E,,E,] z [E,B,] z [E,B,] z | %6
 [E,,E,] z [E,B,] z [E,B,] z | [F,,F,] z [F,B,] z (3(^A,C)[F,C] | B,4 z2 | B,, z B, z B, z | %10
 B,, z B, z [B,,F,]>[B,,F,] | [E,=G,]3 [E,G,] [=C,E,][C,E,] | !fermata![B,,F,]4 z2 | %13
 [E,,E,] z [E,B,] z [E,B,] z | [E,,E,] z [E,B,] z (3:2:2[E,B,]2 [E,E] | %15
 (3([E,E][G,B,])[F,C] (B,2 z) A, x | !fermata![E,G,]4 || z2 | %18
 ([B,,B,]>[B,,B,]) ([B,,B,][B,,B,]) z2 | ([E,B,]>[E,B,]) ([E,B,][E,B,]) z2 | %20
 [E,,E,] z [E,B,] z B,2 (3:2:1[G,B,] x/12 | B,4 (3:2:2[E,G,]2 [E,A,] | %22
 [E,B,]2 [E,B,]2 (3:2:2[E,B,]2 [E,E] | [E,E]2 [E,E]2 (3:2:2[E,B,]2 [E,E] | %24
 (3([E,E][G,B,])[F,C] B,3 [B,,A,] | !fermata![E,,E,G,]6 |] %26
V:4
 x2 | x6 | x6 | x4 (3:2:2E,F, x17/12 | B,4 x2 | x6 | x6 | x4 F,2 | (B,,2 B,2) x2 | x6 | x6 | x6 | %12
 x6 | x6 | x6 | x2 B,3 B,,2 | x4 || x2 | x6 | x6 | x4 (3:2:2(E,F,) x17/12 | B,4 x2 | x6 | x6 | %24
 x2 B,3 x | x6 |] %26

